icons/project-roadmap-16.svg

<svg width="16" height="16" viewBox="0 0 16 16" fill="none" xmlns="http://www.w3.org/2000/svg">
<g clip-path="url(#clip0_4119_118)">
<path d="M4.75 7C4.33579 7 4 7.33579 4 7.75C4 8.16421 4.33579 8.5 4.75 8.5H9.25C9.66421 8.5 10 8.16421 10 7.75C10 7.33579 9.66421 7 9.25 7H4.75Z" fill="black"/>
<path d="M5 4.75C5 4.33579 5.33579 4 5.75 4H11.25C11.6642 4 12 4.33579 12 4.75C12 5.16421 11.6642 5.5 11.25 5.5H5.75C5.33579 5.5 5 5.16421 5 4.75Z" fill="black"/>
<path d="M6.75 10C6.33579 10 6 10.3358 6 10.75C6 11.1642 6.33579 11.5 6.75 11.5H11.25C11.6642 11.5 12 11.1642 12 10.75C12 10.3358 11.6642 10 11.25 10H6.75Z" fill="black"/>
<path fill-rule="evenodd" clip-rule="evenodd" d="M0 1.75C0 0.783502 0.783502 0 1.75 0H14.25C15.2165 0 16 0.783502 16 1.75V14.25C16 15.2165 15.2165 16 14.25 16H1.75C0.783502 16 0 15.2165 0 14.25V1.75ZM1.75 1.5H14.25C14.3881 1.5 14.5 1.61193 14.5 1.75V14.25C14.5 14.3881 14.3881 14.5 14.25 14.5H1.75C1.61193 14.5 1.5 14.3881 1.5 14.25V1.75C1.5 1.61193 1.61193 1.5 1.75 1.5Z" fill="black"/>
</g>
<defs>
<clipPath id="clip0_4119_118">
<rect width="16" height="16" fill="white"/>
</clipPath>
</defs>
</svg>

<svg xmlns="http://www.w3.org/2000/svg" width="16" height="16" viewBox="0 0 16 16"><path d="M4.75 7a.75.75 0 000 1.5h4.5a.75.75 0 000-1.5h-4.5zM5 4.75A.75.75 0 015.75 4h5.5a.75.75 0 010 1.5h-5.5A.75.75 0 015 4.75zM6.75 10a.75.75 0 000 1.5h4.5a.75.75 0 000-1.5h-4.5z"/><path fill-rule="evenodd" d="M0 1.75C0 .784.784 0 1.75 0h12.5C15.216 0 16 .784 16 1.75v12.5A1.75 1.75 0 0114.25 16H1.75A1.75 1.75 0 010 14.25V1.75zm1.75-.25h12.5a.25.25 0 01.25.25v12.5a.25.25 0 01-.25.25H1.75a.25.25 0 01-.25-.25V1.75a.25.25 0 01.25-.25z"/></svg>
